icons/svelte/svelte-original-wordmark.svg

<?xml version="1.0" encoding="UTF-8"?>
<svg xmlns="http://www.w3.org/2000/svg" xmlns:xlink="http://www.w3.org/1999/xlink" width="128pt" height="128pt" viewBox="0 0 128 128" version="1.1">
<g id="surface1">
<path style=" stroke:none;fill-rule:nonzero;fill:rgb(100%,24.313725%,0%);fill-opacity:1;" d="M 85.105469 37.78125 C 78.949219 30.28125 66.894531 28.113281 57.609375 32.835938 L 41.90625 41.210938 C 37.609375 43.472656 34.660156 47.148438 33.796875 51.332031 C 33.027344 54.804688 33.695312 58.398438 35.671875 61.523438 C 34.320312 63.226562 33.414062 65.144531 33.007812 67.167969 C 32.109375 71.414062 33.28125 75.789062 36.261719 79.3125 C 42.429688 86.792969 54.453125 88.972656 63.757812 84.300781 L 79.472656 75.917969 C 83.746094 73.65625 86.683594 69.980469 87.550781 65.800781 C 88.308594 62.332031 87.640625 58.75 85.667969 55.640625 C 89.839844 50.144531 89.621094 43.074219 85.105469 37.78125 Z M 56.042969 80.039062 C 50.992188 81.140625 45.652344 79.476562 42.683594 75.875 C 40.863281 73.761719 40.195312 71.148438 40.722656 68.558594 L 41.03125 67.308594 L 41.3125 66.535156 L 42.15625 67.003906 C 44.007812 68.179688 46.082031 69.027344 48.292969 69.597656 L 48.863281 69.761719 L 48.800781 70.230469 C 48.746094 70.886719 48.976562 71.621094 49.425781 72.179688 C 50.347656 73.292969 51.945312 73.824219 53.488281 73.476562 C 53.828125 73.382812 54.160156 73.292969 54.441406 73.144531 L 70.09375 64.769531 C 70.882812 64.347656 71.386719 63.710938 71.582031 62.960938 C 71.757812 62.175781 71.527344 61.378906 71.023438 60.746094 C 70.089844 59.660156 68.503906 59.171875 66.957031 59.496094 C 66.621094 59.59375 66.257812 59.707031 65.972656 59.851562 L 60.054688 63.003906 C 54.453125 65.800781 47.21875 64.484375 43.503906 59.992188 C 41.695312 57.875 40.984375 55.238281 41.53125 52.671875 C 42.078125 50.136719 43.886719 47.910156 46.507812 46.550781 L 62.125 38.175781 C 63.109375 37.660156 64.171875 37.285156 65.324219 37 C 70.375 35.894531 75.699219 37.5625 78.683594 41.144531 C 80.785156 43.625 81.378906 46.796875 80.28125 49.703125 L 79.996094 50.484375 L 79.1875 50.015625 C 77.3125 48.867188 75.230469 47.992188 73.019531 47.421875 L 72.457031 47.285156 L 72.511719 46.816406 C 72.566406 46.125 72.339844 45.398438 71.886719 44.839844 C 70.96875 43.726562 69.367188 43.257812 67.824219 43.589844 C 67.484375 43.679688 67.152344 43.773438 66.871094 43.921875 L 51.1875 52.367188 C 50.398438 52.808594 49.894531 53.425781 49.730469 54.195312 C 49.566406 54.949219 49.785156 55.777344 50.289062 56.386719 C 51.1875 57.496094 52.820312 57.964844 54.332031 57.632812 C 54.695312 57.542969 55.035156 57.449219 55.308594 57.304688 L 61.292969 54.101562 C 62.269531 53.5625 63.363281 53.164062 64.484375 52.90625 C 69.570312 51.796875 74.875 53.46875 77.84375 57.070312 C 79.664062 59.1875 80.363281 61.796875 79.859375 64.359375 C 79.332031 66.898438 77.546875 69.121094 74.949219 70.484375 L 59.300781 78.839844 C 58.28125 79.351562 57.183594 79.757812 56.042969 80.03125 Z M 56.042969 80.039062 "/>
<path style=" stroke:none;fill-rule:nonzero;fill:rgb(47.45098%,47.058824%,47.058824%);fill-opacity:1;" d="M 37.691406 102.574219 C 36.253906 102.574219 35.179688 102.253906 34.46875 101.609375 C 33.757812 100.964844 33.386719 100.136719 33.351562 99.128906 L 34.648438 99.128906 C 34.71875 99.886719 35.03125 100.449219 35.59375 100.816406 C 36.15625 101.179688 36.839844 101.359375 37.632812 101.359375 C 38.390625 101.359375 38.996094 101.203125 39.453125 100.894531 C 39.917969 100.582031 40.148438 100.160156 40.148438 99.628906 C 40.148438 99.070312 39.910156 98.660156 39.433594 98.40625 C 38.957031 98.152344 38.132812 97.902344 36.96875 97.65625 C 35.804688 97.40625 34.96875 97.0625 34.460938 96.621094 C 33.957031 96.183594 33.703125 95.597656 33.703125 94.863281 C 33.703125 94.042969 34.03125 93.363281 34.691406 92.835938 C 35.351562 92.308594 36.230469 92.046875 37.320312 92.046875 C 38.46875 92.046875 39.394531 92.3125 40.101562 92.84375 C 40.804688 93.375 41.175781 94.128906 41.21875 95.101562 L 39.90625 95.101562 C 39.769531 93.871094 38.929688 93.253906 37.378906 93.253906 C 36.628906 93.253906 36.046875 93.394531 35.632812 93.679688 C 35.222656 93.960938 35.015625 94.335938 35.015625 94.804688 C 35.015625 95.230469 35.179688 95.546875 35.507812 95.761719 C 35.84375 95.972656 36.460938 96.179688 37.363281 96.378906 C 38.269531 96.578125 38.992188 96.773438 39.523438 96.96875 C 40.054688 97.164062 40.511719 97.46875 40.890625 97.878906 C 41.269531 98.285156 41.460938 98.835938 41.460938 99.523438 C 41.460938 100.398438 41.113281 101.125 40.414062 101.707031 C 39.71875 102.285156 38.8125 102.574219 37.691406 102.574219 Z M 51.585938 92.21875 L 47.628906 102.398438 L 46.238281 102.398438 L 42.28125 92.21875 L 43.71875 92.21875 L 46.933594 100.949219 L 50.148438 92.21875 Z M 60.414062 102.398438 L 52.824219 102.398438 L 52.824219 92.21875 L 60.175781 92.21875 L 60.175781 93.425781 L 54.167969 93.425781 L 54.167969 96.539062 L 59.789062 96.539062 L 59.789062 97.746094 L 54.167969 97.746094 L 54.167969 101.191406 L 60.414062 101.191406 Z M 68.605469 102.398438 L 62.308594 102.398438 L 62.308594 92.21875 L 63.65625 92.21875 L 63.65625 101.191406 L 68.605469 101.191406 Z M 77.460938 93.425781 L 74.09375 93.425781 L 74.09375 102.398438 L 72.738281 102.398438 L 72.738281 93.425781 L 69.398438 93.425781 L 69.398438 92.21875 L 77.460938 92.21875 Z M 86.507812 102.398438 L 78.917969 102.398438 L 78.917969 92.21875 L 86.273438 92.21875 L 86.273438 93.425781 L 80.265625 93.425781 L 80.265625 96.539062 L 85.882812 96.539062 L 85.882812 97.746094 L 80.265625 97.746094 L 80.265625 101.191406 L 86.507812 101.191406 Z M 86.507812 102.398438 "/>
</g>
</svg>

<svg xmlns="http://www.w3.org/2000/svg" viewBox="0 0 128 128"><path d="M85.105 37.781c-6.156-7.5-18.21-9.668-27.496-4.945L41.906 41.21c-4.297 2.262-7.246 5.937-8.11 10.121-.769 3.473-.1 7.066 1.876 10.191-1.352 1.704-2.258 3.622-2.664 5.645-.899 4.246.273 8.621 3.254 12.144 6.168 7.481 18.191 9.66 27.496 4.989l15.715-8.383c4.273-2.262 7.21-5.938 8.078-10.117.758-3.469.09-7.051-1.883-10.16 4.172-5.496 3.953-12.567-.563-17.86zM56.043 80.04c-5.05 1.102-10.39-.562-13.36-4.164-1.82-2.113-2.488-4.727-1.96-7.316l.308-1.25.282-.774.843.469c1.852 1.176 3.926 2.023 6.137 2.594l.57.164-.062.468c-.055.657.176 1.391.625 1.95.922 1.113 2.52 1.644 4.062 1.297.34-.094.672-.184.953-.332l15.653-8.375c.789-.422 1.293-1.06 1.488-1.81.176-.784-.055-1.581-.559-2.214-.933-1.086-2.52-1.574-4.066-1.25-.336.098-.7.211-.984.356l-5.918 3.152c-5.602 2.797-12.836 1.48-16.551-3.012-1.809-2.117-2.52-4.754-1.973-7.32.547-2.535 2.356-4.762 4.977-6.121l15.617-8.375c.984-.516 2.047-.89 3.2-1.176 5.05-1.105 10.374.563 13.359 4.145 2.101 2.48 2.695 5.652 1.597 8.558l-.285.781-.808-.468a22.627 22.627 0 00-6.168-2.594l-.563-.137.055-.469a2.83 2.83 0 00-.625-1.976c-.918-1.113-2.52-1.582-4.063-1.25-.34.09-.672.183-.953.332l-15.683 8.445c-.79.442-1.293 1.059-1.458 1.828-.164.754.055 1.582.56 2.192.898 1.11 2.53 1.578 4.042 1.246.363-.09.703-.184.977-.328l5.984-3.203c.977-.54 2.07-.938 3.191-1.196 5.086-1.11 10.391.563 13.36 4.164 1.82 2.117 2.52 4.727 2.015 7.29-.527 2.538-2.312 4.761-4.91 6.124L59.301 78.84c-1.02.512-2.117.918-3.258 1.191zm0 0" fill="#ff3e00"/><path d="M37.691 102.574c-1.437 0-2.511-.32-3.222-.965-.711-.644-1.082-1.472-1.117-2.48h1.296c.07.758.383 1.32.946 1.687.562.364 1.246.543 2.039.543.758 0 1.363-.156 1.82-.464.465-.313.695-.735.695-1.266 0-.559-.238-.969-.714-1.223-.477-.254-1.301-.504-2.465-.75-1.164-.25-2-.594-2.508-1.035-.504-.437-.758-1.023-.758-1.758 0-.82.328-1.5.988-2.027.66-.527 1.54-.79 2.63-.79 1.148 0 2.074.266 2.78.798.704.531 1.075 1.285 1.118 2.258h-1.313c-.136-1.23-.976-1.848-2.527-1.848-.75 0-1.332.14-1.746.426-.41.28-.617.656-.617 1.125 0 .425.164.742.492.957.336.21.953.418 1.855.617.907.2 1.63.394 2.16.59.532.195.989.5 1.368.91.379.406.57.957.57 1.644 0 .875-.348 1.602-1.047 2.184-.695.578-1.602.867-2.723.867zM51.586 92.22l-3.957 10.18h-1.39l-3.958-10.18h1.438l3.215 8.73 3.214-8.73zm8.828 10.18h-7.59v-10.18h7.352v1.207h-6.008v3.113h5.621v1.207h-5.621v3.445h6.246zm8.191 0H62.31v-10.18h1.347v8.972h4.95zm8.856-8.973h-3.367v8.972h-1.356v-8.972h-3.34v-1.207h8.063zm9.047 8.972h-7.59v-10.18h7.355v1.208h-6.007v3.113h5.617v1.207h-5.617v3.445h6.242zm0 0" fill="#797878"/></svg>
